icons/linear-new-office-doc-document-star-collection.svg

<svg xmlns="http://www.w3.org/2000/svg" width="32px" height="32px" viewBox="0 0 32 32" version="1.1">
    <title>linear-new-office-doc-document-star-collection</title>
    <g id="linear-new-office-doc-document-star-collection" stroke-width="1" fill-rule="evenodd">
        <path d="M27,2 C27.5522847,2 28,2.44771525 28,3 L28,19.127 L26.679,18.935 L24.9728194,15.4782657 C24.7586928,15.044398 24.4075123,14.6932175 23.9736446,14.4790909 C22.8840865,13.9413619 21.5649097,14.3887077 21.0271806,15.4782657 L19.32,18.935 L15.5049838,19.4903766 C15.0261823,19.5599505 14.583669,19.7854223 14.2459501,20.1318863 L14.1306816,20.2596222 C13.4014755,21.1333672 13.4570821,22.4351852 14.2857144,23.242902 L17.046,25.934 L16.3950059,29.7346337 C16.3798408,29.8230528 16.3701586,29.9119415 16.3658826,30.000816 L5,30 C4.44771525,30 4,29.5522847 4,29 L4,3 C4,2.44771525 4.44771525,2 5,2 L27,2 Z M23.4425657,17.3628154 C23.6397783,17.4601456 23.7994058,17.6197731 23.8967361,17.8169858 L25.351141,20.763932 L28.6032893,21.2364968 C29.1498342,21.3159144 29.5285156,21.8233573 29.449098,22.3699022 C29.4174735,22.5875392 29.3149863,22.7886816 29.1575027,22.9421902 L26.8042261,25.236068 L27.3597593,28.4750754 C27.4531203,29.0194118 27.0875325,29.5363677 26.5431961,29.6297287 C26.3264384,29.6669056 26.1034703,29.6315909 25.9088099,29.5292518 L23,28 L20.0911901,29.5292518 C19.6023455,29.7862527 18.9977184,29.5983061 18.7407176,29.1094615 C18.6383785,28.9148011 18.6030638,28.691833 18.6402407,28.4750754 L19.1957739,25.236068 L16.8424973,22.9421902 C16.4470137,22.556689 16.4389214,21.9235757 16.8244226,21.5280922 C16.9779313,21.3706085 17.1790737,21.2681213 17.3967107,21.2364968 L20.648859,20.763932 L22.1032639,17.8169858 C22.3476862,17.3217321 22.9473121,17.1183931 23.4425657,17.3628154 Z M15,14 L11,14 C10.4477153,14 10,14.4477153 10,15 C10,15.5522847 10.4477153,16 11,16 L15,16 C15.5522847,16 16,15.5522847 16,15 C16,14.4477153 15.5522847,14 15,14 Z M21,8 L11,8 C10.4477153,8 10,8.44771525 10,9 C10,9.55228475 10.4477153,10 11,10 L21,10 C21.5522847,10 22,9.55228475 22,9 C22,8.44771525 21.5522847,8 21,8 Z" id="&#24418;&#29366;" />
    </g>
</svg>

<svg xmlns="http://www.w3.org/2000/svg" viewBox="0 0 32 32"><path fill="currentColor" d="M27 2a1 1 0 0 1 1 1v16.127l-1.321-.192-1.706-3.457a2.2 2.2 0 0 0-3.946 0l-1.707 3.457-3.815.555a2.2 2.2 0 0 0-1.259.642l-.115.128a2.2 2.2 0 0 0 .155 2.983l2.76 2.691-.651 3.8a2.2 2.2 0 0 0-.03.267L5 30a1 1 0 0 1-1-1V3a1 1 0 0 1 1-1zm-3.557 15.363a1 1 0 0 1 .454.454l1.454 2.947 3.252.472a1 1 0 0 1 .555 1.706l-2.354 2.294.556 3.24a1 1 0 0 1-1.451 1.053L23 28l-2.909 1.53a1 1 0 0 1-1.45-1.055l.555-3.239-2.354-2.294a1 1 0 0 1 .555-1.706l3.252-.472 1.454-2.947a1 1 0 0 1 1.34-.454M15 14h-4a1 1 0 0 0 0 2h4a1 1 0 0 0 0-2m6-6H11a1 1 0 0 0 0 2h10a1 1 0 0 0 0-2"/></svg>
